assets/emojis/SlightlySmilingFace.svg

<svg width="125" height="125" viewBox="0 0 125 125" fill="none" xmlns="http://www.w3.org/2000/svg">
<circle cx="62.375" cy="62.3496" r="62.3496" fill="#F9B42F"/>
<path opacity="0.3" fill-rule="evenodd" clip-rule="evenodd" d="M113.311 98.5209C101.989 110.112 86.1869 117.308 68.704 117.308C34.2693 117.308 6.35442 89.3929 6.35442 54.9582C6.35442 41.5625 10.5789 29.1535 17.7682 18.9907C6.79053 30.2299 0.0253906 45.6016 0.0253906 62.5535C0.0253906 96.9882 27.9403 124.903 62.375 124.903C83.414 124.903 102.019 114.482 113.311 98.5209Z" fill="#BC8417"/>
<path d="M37.1158 62.153C39.7707 62.153 41.923 60.0007 41.923 57.3458C41.923 54.6908 39.7707 52.5386 37.1158 52.5386C34.4608 52.5386 32.3086 54.6908 32.3086 57.3458C32.3086 60.0007 34.4608 62.153 37.1158 62.153Z" fill="#2C2A46"/>
<path d="M87.7554 62.1525C90.4104 62.1525 92.5626 60.0002 92.5626 57.3453C92.5626 54.6903 90.4104 52.5381 87.7554 52.5381C85.1005 52.5381 82.9482 54.6903 82.9482 57.3453C82.9482 60.0002 85.1005 62.1525 87.7554 62.1525Z" fill="#2C2A46"/>
<path d="M62.6919 84.8364C55.3475 84.8364 49.0649 82.2879 47.0651 78.483C46.8598 78.0873 46.8114 77.6288 46.9295 77.199C47.0476 76.7692 47.3235 76.3998 47.7022 76.1646C47.9076 76.0532 48.1331 75.9835 48.3656 75.9597C48.5981 75.9359 48.833 75.9584 49.0568 76.0258C49.2806 76.0933 49.4888 76.2044 49.6694 76.3528C49.85 76.5011 49.9994 76.6838 50.109 76.8902C51.2417 79.067 56.02 81.3677 62.6034 81.3677C69.1869 81.3677 74.2661 78.9785 75.2041 76.6601C75.3824 76.2236 75.7269 75.8759 76.1616 75.6933C76.5964 75.5108 77.0859 75.5084 77.5224 75.6868C77.9589 75.8651 78.3067 76.2096 78.4893 76.6444C78.6718 77.0792 78.6741 77.5686 78.4958 78.0052C76.8499 82.0048 70.2842 84.8364 62.6919 84.8364Z" fill="#2C2A46"/>
</svg>

<svg xmlns="http://www.w3.org/2000/svg" width="125" height="125" fill="none" viewBox="0 0 125 125"><circle cx="62.375" cy="62.35" r="62.35" fill="#f9b42f"/><path fill="#bc8417" fill-rule="evenodd" d="M113.311 98.52c-11.322 11.592-27.124 18.788-44.607 18.788-34.435 0-62.35-27.915-62.35-62.35 0-13.395 4.225-25.804 11.414-35.967C6.791 30.23.025 45.6.025 62.554c0 34.434 27.915 62.349 62.35 62.349 21.039 0 39.644-10.421 50.936-26.382" clip-rule="evenodd" opacity=".3"/><path fill="#2c2a46" d="M37.116 62.153a4.807 4.807 0 1 0 0-9.615 4.807 4.807 0 0 0 0 9.615m50.639 0a4.807 4.807 0 1 0 0-9.615 4.807 4.807 0 0 0 0 9.615M62.692 84.836c-7.345 0-13.627-2.548-15.627-6.353a1.77 1.77 0 0 1 .637-2.318 1.77 1.77 0 0 1 2.407.725c1.133 2.177 5.911 4.478 12.494 4.478s11.663-2.39 12.601-4.708a1.778 1.778 0 1 1 3.292 1.345c-1.646 4-8.212 6.831-15.804 6.831"/></svg>
